icons/1_Primary/SentinelOne.svg

<svg width="1024" height="1024" viewBox="0 0 1024 1024" fill="none" xmlns="http://www.w3.org/2000/svg">
<g clip-path="url(#clip0_2_3441)">
<path d="M512 1024C794.77 1024 1024 794.77 1024 512C1024 229.23 794.77 0 512 0C229.23 0 0 229.23 0 512C0 794.77 229.23 1024 512 1024Z" fill="#BD9AFF"/>
<path d="M473.27 224V687.89H550.85V224H473.27ZM358.03 246.04C358.03 246.04 280.63 340.32 280.63 408.06V642.74C280.393 658.183 284.061 673.435 291.294 687.081C298.526 700.727 309.088 712.326 322 720.8L358.03 743.14V246.04ZM665.97 246.04V743.32L702 720.98C714.902 712.493 725.456 700.891 732.687 687.245C739.918 673.6 743.592 658.351 743.37 642.91V408.05C743.55 340.31 665.96 246.03 665.96 246.03L665.97 246.04ZM569.65 315.76V799.76L647.17 751.72V350.1C624.184 333.059 597.705 321.327 569.64 315.75L569.65 315.76ZM454.29 316C426.225 321.489 399.727 333.14 376.71 350.11V751.97L454.29 800.01V316.01V316Z" fill="white"/>
</g>
<defs>
<clipPath id="clip0_2_3441">
<rect width="1024" height="1024" fill="white"/>
</clipPath>
</defs>
</svg>

<svg width="1024" height="1024" fill="none" xmlns="http://www.w3.org/2000/svg"><g clip-path="url(#a)"><path d="M512 1024c282.77 0 512-229.23 512-512S794.77 0 512 0 0 229.23 0 512s229.23 512 512 512Z" fill="#BD9AFF"/><path d="M473.27 224v463.89h77.58V224h-77.58Zm-115.24 22.04s-77.4 94.28-77.4 162.02v234.68A91.688 91.688 0 0 0 322 720.8l36.03 22.34v-497.1Zm307.94 0v497.28L702 720.98a91.863 91.863 0 0 0 41.37-78.07V408.05c.18-67.74-77.41-162.02-77.41-162.02l.01.01Zm-96.32 69.72v484l77.52-48.04V350.1a193.514 193.514 0 0 0-77.53-34.35l.01.01Zm-115.36.24a193.238 193.238 0 0 0-77.58 34.11v401.86l77.58 48.04V316Z" fill="#fff"/></g><defs><clipPath id="a"><path fill="#fff" d="M0 0h1024v1024H0z"/></clipPath></defs></svg>
